X:0487
T:Salt Fish & Dumplins
M:C
L:1/8
Q:1/2=104
I: :: ::
Z:Jack Campin * www.campin.me.uk * 2009
K:G
B>A|G3 A (B3 c)|d3 g     dBAG|c3 e dBAG|FGAB A3
B  |cBcd  efge |dBAG {G} F2ED|GBAc BdAc|B2G2 G2::
ge |dBGB (d3 e)|dBGB     d2cB|cBcd efga|f2d2 d2
cB |cBcd  efge |dBAG {G}TF2ED|GBAc BdAc|B2G2 G2:|
<end>
<start>
